icons/vespa_motorcycle_fill.svg

<svg width="48" height="48" viewBox="0 0 48 48" fill="none" xmlns="http://www.w3.org/2000/svg">
<path d="M29.0042 13.6735L25 12.9698L25.3462 11L29.4818 11.7268C30.0902 10.6935 31.2141 10 32.5 10H36.3846C36.7245 10 37 10.2755 37 10.6154V16.3846C37 16.7245 36.7245 17 36.3846 17H32.5C30.6252 17 29.0947 15.5259 29.0042 13.6735Z" fill="black"/>
<path fill-rule="evenodd" clip-rule="evenodd" d="M30.8047 18.5627L29.875 26H23V24.72C23 24.3224 22.6219 24 22.1556 24H14.0864C8.51584 24 4 27.8503 4 32.6C4 32.8209 4.21004 33 4.46914 33L9.02242 33C9.27504 35.8033 11.631 38 14.5 38C17.369 38 19.725 35.8032 19.9776 33H20.8889C20.9262 33 20.9632 32.9992 21 32.9975V33L31.3655 33C31.5676 33.6793 32.149 34.1154 32.784 34.2494C33.5148 36.4293 35.574 38 38 38C41.0375 38 43.5 35.5376 43.5 32.5C43.5 32.3698 43.4954 32.2407 43.4866 32.1128C43.9325 31.6487 44.1559 30.9678 43.8816 30.2309C43.425 29.0046 42.6051 27.9352 41.5182 27.1741C40.106 26.1853 38.3589 25.798 36.6612 26.0973C36.081 26.1996 35.5229 26.3792 35 26.6277V19H32.5C31.8849 19 31.3069 18.8413 30.8047 18.5627ZM16.95 33H12.05C12.2816 34.1411 13.2905 35 14.5 35C15.7095 35 16.7184 34.1411 16.95 33ZM35.8943 33.8482C36.3388 34.541 37.1158 35 38 35C39.1218 35 40.071 34.2611 40.3876 33.2434C40.4076 33.1789 40.4252 33.1133 40.44 33.0467L35.8943 33.8482Z" fill="black"/>
<path d="M9.17071 20C9.18216 19.9676 9.19416 19.9354 9.20668 19.9035C9.21527 19.8817 9.22411 19.8599 9.2332 19.8383" fill="black"/>
<path d="M9.17071 20C9.06016 20.3128 9 20.6494 9 21V22H24V21C24 20.6635 23.9446 20.3398 23.8424 20.0378L23.8293 20C23.4175 18.8348 22.3062 18 21 18H12C10.7574 18 9.69118 18.7555 9.23575 19.8323" fill="black"/>
</svg>

<svg
  xmlns="http://www.w3.org/2000/svg"
  width="24"
  height="24"
  viewBox="0 0 24 24"
  fill="none"
  stroke="currentColor"
  stroke-width="2"
  stroke-linecap="round"
  stroke-linejoin="round"
>
  <path d="M29.004 13.674 25 12.97l.346-1.97 4.136.727A3.5 3.5 0 0 1 32.5 10h3.885c.34 0 .615.275.615.615v5.77c0 .34-.276.615-.615.615H32.5a3.5 3.5 0 0 1-3.496-3.326" />
  <path
    fill-rule="evenodd"
    d="M30.805 18.563 29.875 26H23v-1.28c0-.398-.378-.72-.844-.72h-8.07C8.516 24 4 27.85 4 32.6c0 .22.21.4.47.4h4.552a5.5 5.5 0 0 0 10.956 0h.91q.057 0 .112-.002V33h10.366c.202.68.783 1.115 1.418 1.25a5.5 5.5 0 0 0 10.703-2.137c.445-.464.669-1.145.395-1.882A6.5 6.5 0 0 0 35 26.628V19h-2.5a3.5 3.5 0 0 1-1.695-.437M16.95 33h-4.9a2.5 2.5 0 0 0 4.9 0m18.944.848a2.501 2.501 0 0 0 4.546-.801z"
    clip-rule="evenodd"
  />
  <path d="M9.17 20a3 3 0 0 1 .063-.162" />
  <path d="M9.17 20c-.11.313-.17.65-.17 1v1h15v-1q-.002-.507-.158-.962L23.83 20A3 3 0 0 0 21 18h-9a3 3 0 0 0-2.764 1.832" />
</svg>
